src/web/src/assets/toolbar/layers.svg

<?xml version="1.0" encoding="utf-8"?><!-- Uploaded to: SVG Repo, www.svgrepo.com, Generator: SVG Repo Mixer Tools -->
<svg width="800px" height="800px" viewBox="0 0 24 24" fill="none" xmlns="http://www.w3.org/2000/svg">
<path d="M4.97883 6.31492C2.99294 7.10927 2 7.50645 2 8C2 8.49355 2.99294 8.89073 4.97883 9.68508L7.7873 10.8085C9.77318 11.6028 10.7661 12 12 12C13.2339 12 14.2268 11.6028 16.2127 10.8085L19.0212 9.68508C21.0071 8.89073 22 8.49355 22 8C22 7.50645 21.0071 7.10927 19.0212 6.31492L16.2127 5.19153C14.2268 4.39718 13.2339 4 12 4C11.0461 4 10.2361 4.2374 9 4.71221" stroke="#1C274C" stroke-width="1.5" stroke-linecap="round"/>
<path d="M5.76613 10L4.97883 10.3149C2.99294 11.1093 2 11.5065 2 12C2 12.4935 2.99294 12.8907 4.97883 13.6851L7.7873 14.8085C9.77318 15.6028 10.7661 16 12 16C13.2339 16 14.2268 15.6028 16.2127 14.8085L19.0212 13.6851C21.0071 12.8907 22 12.4935 22 12C22 11.5065 21.0071 11.1093 19.0212 10.3149L18.2339 10" stroke="#1C274C" stroke-width="1.5"/>
<path d="M19.0212 17.6851C21.0071 16.8907 22 16.4935 22 16C22 15.5065 21.0071 15.1093 19.0212 14.3149L18.2339 14M5.76613 14L4.97883 14.3149C2.99294 15.1093 2 15.5065 2 16C2 16.4935 2.99294 16.8907 4.97883 17.6851L7.7873 18.8085C9.77318 19.6028 10.7661 20 12 20C12.9539 20 13.7639 19.7626 15 19.2878" stroke="#1C274C" stroke-width="1.5" stroke-linecap="round"/>
</svg>

<svg xmlns="http://www.w3.org/2000/svg" width="800" height="800" fill="none" viewBox="0 0 24 24"><path stroke="#1c274c" stroke-linecap="round" stroke-width="1.5" d="M4.979 6.315C2.993 7.109 2 7.506 2 8s.993.89 2.979 1.685l2.808 1.124C9.773 11.603 10.767 12 12 12s2.227-.397 4.213-1.191l2.808-1.124C21.007 8.891 22 8.494 22 8s-.993-.89-2.979-1.685l-2.808-1.123C14.227 4.397 13.233 4 12 4c-.954 0-1.764.237-3 .712"/><path stroke="#1c274c" stroke-width="1.5" d="m5.766 10-.787.315C2.993 11.109 2 11.507 2 12s.993.89 2.979 1.685l2.808 1.124C9.773 15.603 10.767 16 12 16s2.227-.397 4.213-1.191l2.808-1.124C21.007 12.891 22 12.493 22 12s-.993-.89-2.979-1.685L18.234 10"/><path stroke="#1c274c" stroke-linecap="round" stroke-width="1.5" d="M19.021 17.685C21.007 16.891 22 16.494 22 16c0-.493-.993-.89-2.979-1.685L18.234 14M5.766 14l-.787.315C2.993 15.109 2 15.507 2 16s.993.89 2.979 1.685l2.808 1.124C9.773 19.603 10.767 20 12 20c.954 0 1.764-.237 3-.712"/></svg>
